X:1
L:1/4
Q:1/4=200
M:6/8
V:1
V:2 clef=bass
K:F
[V:1] [A,^CF]2 F/G/ | [DFA]3/4 z/4 [DFA]3/4 z/4 [DFA]3/4 z/4 | [DFB]/[DFA]/ z2 | [CEG]3/4 z/4 [CEG]3/4 z/4 [CEG]3/4 z/4 |
[V:2] [A,,,A,,]3/4 z3/4 [A,,,A,,]3/4 z3/4 | [D,,D,]3/4 z3/4 [D,,D,]3/4 z3/4 | [D,,D,]3/4 z3/4 [D,,D,]/[D,,D,]/[D,,D,]/ | [C,,C,]3/4 z3/4 [C,,C,]3/4 z3/4 |